tools/download-figma-icons/icons/outlined-medium/fax.svg

<svg width="24" height="24" viewBox="0 0 24 24" fill="none" xmlns="http://www.w3.org/2000/svg">
<path d="M21.75 6H21V2.25C21 2.05109 20.921 1.86032 20.7803 1.71967C20.6397 1.57902 20.4489 1.5 20.25 1.5H10.5C10.3011 1.5 10.1103 1.57902 9.96967 1.71967C9.82902 1.86032 9.75 2.05109 9.75 2.25V6H8.25V5.625C8.25 5.12772 8.05246 4.65081 7.70083 4.29917C7.34919 3.94754 6.87228 3.75 6.375 3.75H4.875C4.37772 3.75 3.90081 3.94754 3.54917 4.29917C3.19754 4.65081 3 5.12772 3 5.625V6H2.25C1.65326 6 1.08097 6.23705 0.65901 6.65901C0.237053 7.08097 0 7.65326 0 8.25L0 20.25C0 20.8467 0.237053 21.419 0.65901 21.841C1.08097 22.2629 1.65326 22.5 2.25 22.5H21.75C22.3467 22.5 22.919 22.2629 23.341 21.841C23.7629 21.419 24 20.8467 24 20.25V8.25C24 7.65326 23.7629 7.08097 23.341 6.65901C22.919 6.23705 22.3467 6 21.75 6ZM11.25 6V3H19.5V10.5H11.25V6ZM4.5 6V5.625C4.5 5.52554 4.53951 5.43016 4.60984 5.35984C4.68016 5.28951 4.77554 5.25 4.875 5.25H6.375C6.47446 5.25 6.56984 5.28951 6.64017 5.35984C6.71049 5.43016 6.75 5.52554 6.75 5.625V17.625C6.75 17.7245 6.71049 17.8198 6.64017 17.8902C6.56984 17.9605 6.47446 18 6.375 18H4.875C4.77554 18 4.68016 17.9605 4.60984 17.8902C4.53951 17.8198 4.5 17.7245 4.5 17.625V6ZM22.5 20.25C22.5 20.4489 22.421 20.6397 22.2803 20.7803C22.1397 20.921 21.9489 21 21.75 21H2.25C2.05109 21 1.86032 20.921 1.71967 20.7803C1.57902 20.6397 1.5 20.4489 1.5 20.25V8.25C1.5 8.05109 1.57902 7.86032 1.71967 7.71967C1.86032 7.57902 2.05109 7.5 2.25 7.5H3V17.625C3 18.1223 3.19754 18.5992 3.54917 18.9508C3.90081 19.3025 4.37772 19.5 4.875 19.5H6.375C6.87228 19.5 7.34919 19.3025 7.70083 18.9508C8.05246 18.5992 8.25 18.1223 8.25 17.625V7.5H9.75V11.25C9.75 11.4489 9.82902 11.6397 9.96967 11.7803C10.1103 11.921 10.3011 12 10.5 12H20.25C20.4489 12 20.6397 11.921 20.7803 11.7803C20.921 11.6397 21 11.4489 21 11.25V7.5H21.75C21.9489 7.5 22.1397 7.57902 22.2803 7.71967C22.421 7.86032 22.5 8.05109 22.5 8.25V20.25Z" fill="black"/>
<path d="M12 14.25H11.25C11.0511 14.25 10.8603 14.329 10.7197 14.4697C10.579 14.6103 10.5 14.8011 10.5 15C10.5 15.1989 10.579 15.3897 10.7197 15.5303C10.8603 15.671 11.0511 15.75 11.25 15.75H12C12.1989 15.75 12.3897 15.671 12.5303 15.5303C12.671 15.3897 12.75 15.1989 12.75 15C12.75 14.8011 12.671 14.6103 12.5303 14.4697C12.3897 14.329 12.1989 14.25 12 14.25Z" fill="black"/>
<path d="M15.75 14.25H15C14.8011 14.25 14.6103 14.329 14.4697 14.4697C14.329 14.6103 14.25 14.8011 14.25 15C14.25 15.1989 14.329 15.3897 14.4697 15.5303C14.6103 15.671 14.8011 15.75 15 15.75H15.75C15.9489 15.75 16.1397 15.671 16.2803 15.5303C16.421 15.3897 16.5 15.1989 16.5 15C16.5 14.8011 16.421 14.6103 16.2803 14.4697C16.1397 14.329 15.9489 14.25 15.75 14.25Z" fill="black"/>
<path d="M19.5 14.25H18.75C18.5511 14.25 18.3603 14.329 18.2197 14.4697C18.079 14.6103 18 14.8011 18 15C18 15.1989 18.079 15.3897 18.2197 15.5303C18.3603 15.671 18.5511 15.75 18.75 15.75H19.5C19.6989 15.75 19.8897 15.671 20.0303 15.5303C20.171 15.3897 20.25 15.1989 20.25 15C20.25 14.8011 20.171 14.6103 20.0303 14.4697C19.8897 14.329 19.6989 14.25 19.5 14.25Z" fill="black"/>
<path d="M12 17.25H11.25C11.0511 17.25 10.8603 17.329 10.7197 17.4697C10.579 17.6103 10.5 17.8011 10.5 18C10.5 18.1989 10.579 18.3897 10.7197 18.5303C10.8603 18.671 11.0511 18.75 11.25 18.75H12C12.1989 18.75 12.3897 18.671 12.5303 18.5303C12.671 18.3897 12.75 18.1989 12.75 18C12.75 17.8011 12.671 17.6103 12.5303 17.4697C12.3897 17.329 12.1989 17.25 12 17.25Z" fill="black"/>
<path d="M15.75 17.25H15C14.8011 17.25 14.6103 17.329 14.4697 17.4697C14.329 17.6103 14.25 17.8011 14.25 18C14.25 18.1989 14.329 18.3897 14.4697 18.5303C14.6103 18.671 14.8011 18.75 15 18.75H15.75C15.9489 18.75 16.1397 18.671 16.2803 18.5303C16.421 18.3897 16.5 18.1989 16.5 18C16.5 17.8011 16.421 17.6103 16.2803 17.4697C16.1397 17.329 15.9489 17.25 15.75 17.25Z" fill="black"/>
<path d="M19.5 17.25H18.75C18.5511 17.25 18.3603 17.329 18.2197 17.4697C18.079 17.6103 18 17.8011 18 18C18 18.1989 18.079 18.3897 18.2197 18.5303C18.3603 18.671 18.5511 18.75 18.75 18.75H19.5C19.6989 18.75 19.8897 18.671 20.0303 18.5303C20.171 18.3897 20.25 18.1989 20.25 18C20.25 17.8011 20.171 17.6103 20.0303 17.4697C19.8897 17.329 19.6989 17.25 19.5 17.25Z" fill="black"/>
<path d="M13.5 6H17.25C17.4489 6 17.6397 5.92098 17.7803 5.78033C17.921 5.63968 18 5.44891 18 5.25C18 5.05109 17.921 4.86032 17.7803 4.71967C17.6397 4.57902 17.4489 4.5 17.25 4.5H13.5C13.3011 4.5 13.1103 4.57902 12.9697 4.71967C12.829 4.86032 12.75 5.05109 12.75 5.25C12.75 5.44891 12.829 5.63968 12.9697 5.78033C13.1103 5.92098 13.3011 6 13.5 6Z" fill="black"/>
<path d="M13.5 9H17.25C17.4489 9 17.6397 8.92098 17.7803 8.78033C17.921 8.63968 18 8.44891 18 8.25C18 8.05109 17.921 7.86032 17.7803 7.71967C17.6397 7.57902 17.4489 7.5 17.25 7.5H13.5C13.3011 7.5 13.1103 7.57902 12.9697 7.71967C12.829 7.86032 12.75 8.05109 12.75 8.25C12.75 8.44891 12.829 8.63968 12.9697 8.78033C13.1103 8.92098 13.3011 9 13.5 9Z" fill="black"/>
</svg>

<svg width="24" height="24" viewBox="0 0 24 24" fill="none" xmlns="http://www.w3.org/2000/svg"><path d="M21.75 6H21V2.25a.75.75 0 0 0-.75-.75H10.5a.75.75 0 0 0-.75.75V6h-1.5v-.375A1.875 1.875 0 0 0 6.375 3.75h-1.5A1.875 1.875 0 0 0 3 5.625V6h-.75A2.25 2.25 0 0 0 0 8.25v12a2.25 2.25 0 0 0 2.25 2.25h19.5A2.25 2.25 0 0 0 24 20.25v-12A2.25 2.25 0 0 0 21.75 6Zm-10.5 0V3h8.25v7.5h-8.25V6ZM4.5 6v-.375a.375.375 0 0 1 .375-.375h1.5a.375.375 0 0 1 .375.375v12a.375.375 0 0 1-.375.375h-1.5a.375.375 0 0 1-.375-.375V6Zm18 14.25a.75.75 0 0 1-.75.75H2.25a.75.75 0 0 1-.75-.75v-12a.75.75 0 0 1 .75-.75H3v10.125A1.875 1.875 0 0 0 4.875 19.5h1.5a1.875 1.875 0 0 0 1.875-1.875V7.5h1.5v3.75a.75.75 0 0 0 .75.75h9.75a.75.75 0 0 0 .75-.75V7.5h.75a.75.75 0 0 1 .75.75v12Z" fill="currentColor"/><path d="M12 14.25h-.75a.75.75 0 1 0 0 1.5H12a.75.75 0 1 0 0-1.5Zm3.75 0H15a.75.75 0 1 0 0 1.5h.75a.75.75 0 1 0 0-1.5Zm3.75 0h-.75a.75.75 0 1 0 0 1.5h.75a.75.75 0 1 0 0-1.5Zm-7.5 3h-.75a.75.75 0 1 0 0 1.5H12a.75.75 0 1 0 0-1.5Zm3.75 0H15a.75.75 0 1 0 0 1.5h.75a.75.75 0 1 0 0-1.5Zm3.75 0h-.75a.75.75 0 1 0 0 1.5h.75a.75.75 0 1 0 0-1.5ZM13.5 6h3.75a.75.75 0 1 0 0-1.5H13.5a.75.75 0 1 0 0 1.5Zm0 3h3.75a.75.75 0 1 0 0-1.5H13.5a.75.75 0 1 0 0 1.5Z" fill="currentColor"/></svg>
